X: 1060
T: Hicazkâr Seyir
C: Şefik Gürmeriç
O: Turkey
F: http://compmusic.upf.edu/node/140
N: hicazkar--seyir--sofyan--1--sefik_gurmeric
N: makam= hicazkar
N: form= seyir
N: usul= sofyan = 4/4
M: 4/4
L: 1/16
K: C _1/4B _7/8e _7/8A ^f
Q: 1/4=60
%%MIDI tuningsystem comma53
f4 g4 g4 =a4  | _b3=a aggf g8  | f2g2 =a2_b2 a2g2 g2f2  | \
w:   |   |   | 
f3e feed d8  | 
w:   | 
c4 g4 g4 f2g2  | a4 g2f2 e3d c4  | z4 d2_2/4e2 =f2a2 g2f2  | \
w:   |   |   | 
=f3_3/4e feed d8  | 
w:   | 
z2d4_2/4e2 c4 g4  | =f2e2 d2c2 B8  | \
w:   |   | 
z2c4e2 d2c2 c2B2  | B3A BAAG G8  | 
w:   |   | 
|


